src/svg/twitch.svg

<svg height="1000" width="1000" xmlns="http://www.w3.org/2000/svg"><path d="M499.968 242.236v242.172h-80.91v-242.172h80.91zm222.084 0v242.172h-80.91v-242.172h80.91zm0 424.08l141.174 -141.732v-443.61h-666.252v585.342h181.908v121.086l121.086 -121.086h222.084zm222.084 -666.252v565.254l-242.172 242.172h-181.908l-121.086 121.086h-121.086v-121.086h-222.084v-646.164l60.822 -161.262h827.514z"/></svg>

<svg height="1000" width="1000" xmlns="http://www.w3.org/2000/svg"><path d="M500 242.2v242.2h-80.9V242.2H500zm222.1 0v242.2h-80.9V242.2h80.9zm0 424.1L863.3 524.6V80.9H197v585.4h181.9v121.1L500 666.3h222.1zM944.2 0v565.3L702 807.5H520.1L399 928.6H277.9V807.5H55.8V161.3L116.6 0h827.6z"/></svg>
